X:1
T:Hidden Peace
T:L. O. Brown
T:Hidden Peace
T:Public Domain
T:Public Domain
C:L. O. Brown
Z:Public Domain
%%score ( 1 2 ) ( 3 4 )
L:1/8
M:3/4
K:Ab
V:1 treble 
V:2 treble 
V:3 bass 
V:4 bass 
V:1
 [CE]2 | [CA][CA] [CA]2 [DB]2 | [Ec][Ec] [Ec]2 [Fd]2 | [Ec]3 [EA] [DG][DB] | [CA]4 [CE]2 | %5
w: 1.~I|can- not tell thee|whence it came, This|peace with- in my|breast; But|
w: 2.~Be-|neath the toil and|care of life, This|hid- den stream flows|on; My|
w: 3.~I|can- not tell the|half of love, Un-|feigned, su- preme, di-|vine, That|
w: 4.~I|can- not tell thee|why He chose To|suf- fer and to|die, But|
 [CA][CA] [CA]2 [DB]2 | [Ec][Ed] [Ee]2 [Fd]2 | [Ec]3 [CA] [DB][DB] | [CA]4 ||"^Refrain" [_GA][GA] | %10
w: this I know, there|fills my soul A|strange and tran- quil|rest.||
w: wear- y soul no|long- er thirsts, Nor|am I sad and|lone.|There’s a|
w: caused my dark- est|in- most self With|beams of hope to|shine.||
w: if I suf- fer|here with Him I’ll|reign with Him on|high.||
 [Fd]2 [Fd][Fd] [Fd]2 [FA][_FB] | [Ec]4- [Ec]2 [Ec][Ec] | [EB]2 [EB][EB] [A=d]2 [Ac][Ad] | %13
w: |||
w: deep, set- tled peace in my|soul, * There’s a|deep, set- tled peace in my|
w: |||
w: |||
 (G2 AA [Ge]2) [Ec][Ed] | (EA) [Af][Ae] [Ac]2 [GB]A | (A2 d4) [=FA][_FB] | (c2 e4) [Ec]>[DB] | %17
w: ||||
w: soul, * * * Tho’ the|* * lows of sin near me|a- * bides, Christ|bides. * * *|
w: ||||
w: ||||
 [CA]6 |] %18
w: |
w: |
w: |
w: |
V:2
 x2 | x6 | x6 | x6 | x6 | x6 | x6 | x6 | x4 || x2 | x8 | x8 | x8 | e4- x4 | e2 x4 A x | _F6 x2 | %16
w: ||||||||||||||||
w: |||||||||||||bil-|roll, He|a-|
 E6 x2 | x6 |] %18
w: ||
w: ||
V:3
 [A,,A,]2 | [A,,E,][A,,E,] [A,,A,]2 [E,G,]2 | A,A, A,2 [D,A,]2 | [E,A,]3 [E,C] [E,B,][E,G,] | %4
w: ~|~ ~ ~ ~|~ ~ ~ ~|~ ~ ~ ~|
 [A,,A,]4 [A,,A,]2 | [A,,E,][A,,E,] [A,,A,]2 [E,G,]2 | A,[A,B,] [A,C]2 [D,A,]2 | %7
w: ~ ~|~ ~ ~ ~|~ ~ ~ ~|
 [E,A,]3 [E,A,] [E,G,]E, | [A,,E,]4 || [A,,A,][A,,A,] | [D,A,]2 [D,A,][D,A,] [D,A,]2 [D,A,][D,A,] | %11
w: ~ ~ ~ ~|~|~ ~|~ ~ in my~soul ~ ~|
 A,,2 C,E, _A,2 A,A, | [G,B,]2 [G,B,][G,B,] [F,B,]2 [F,B,][F,B,] | B,2 CC [E,D]2 A,[A,B,] | %14
w: ~ ~ ~ ~ ~ ~|||
 [A,C]2 [A,D][A,C] [A,E]2 [E,D][F,C] | D2 A,4 [D,A,][D,A,] | E,2 C,4 [E,A,]>[E,G,] | [A,,E,A,]6 |] %18
w: ||||
V:4
 x2 | x6 | A,A, A,2 x2 | x6 | x6 | x6 | A, x5 | x5 E, | x4 || x2 | x8 | A,4- _A,2 A,A, | x8 | %13
w: ||~ ~ ~||||~|~||||~ * in my~soul||
 E,4- A, x3 | x8 | D,6 x2 | A,6 x2 | x6 |] %18
w: |||||

